X:74
%%etbk:tnset id:307,pos:1,rep:3x,ant:
%%etbk:wsite http://www.thesession.org/tunes/display/2922
%%etbk:pldat 2016-03-30T17:50,2016-01-02T14:07,2015-12-31T14:03,2015-12-27T15:01,2015-12-24T15:47,2015-01-21T18:26,2014-11-22T15:19,2014-11-15T16:15,2014-09-25T18:32,2014-09-13T13:59,2014-05-17T14:33,2014-04-08T18:07,2014-04-01T17:28,2014-03-21T16:14,2014-02-11T16:14,2013-08-29T16:49,2013-08-27T18:27,2013-05-23T18:57,2013-05-12T18:41,2013-05-01T16:37
T: Low Road To Glin, The
Z: Piano Box Version by Martin Fleischmann
H: Created 2013-02-19 /  Last Modified 2013-02-19
M: 4/4
L: 1/8
R: reel
K: Edor
|: "em"!2!B3!4!d !2!B!1!E !3!(3E!2!E!1!E | !2!B!4!d!1!Ad Bd!5!ed | !4!dBAd !2!B!1!E !3!(3E!2!E!1!E | "D"!2!FD!4!AG !2!F!1!DD!4!A |
"em"!5![B3E]!4!A !5!B!1!E !3!(3E!2!E!1!E | !2!BdAd !2!Bd!5!e!4!d | !3!fde!1!d !2!BABd | "bm"dBAd "em"BE E2:|
|: "em"!2!e{g}e!1!Be !4!geBg | !2!eBef !4!gfe!1!d | "D"!3!d2!1!Ad !5!fde!3!d | !2!B!1!B!2!Bc !4!d!1!A!2!F!1!A |
"em"!5!e2!1!B!2!e !4!geBg | !2!eBef !4!g!2!fga | !5!bg!4!a!2!f !4!gfe!1!d | "bm"!2!B!1!d!2!e!4!g "em"f!2!ee2 :|


